assets/Magnifying glass tilted left/Flat/magnifying_glass_tilted_left_flat.svg

<svg width="32" height="32" viewBox="0 0 32 32" fill="none" xmlns="http://www.w3.org/2000/svg">
<path d="M3 13C3 18.5228 7.47715 23 13 23C18.5228 23 23 18.5228 23 13C23 7.47715 18.5228 3 13 3C7.47715 3 3 7.47715 3 13Z" fill="#00A6ED"/>
<path d="M18.3481 7.73205C18.9004 8.68864 18.7665 9.79989 18.049 10.2141C17.3316 10.6283 16.3023 10.1886 15.75 9.23205C15.1977 8.27547 15.3316 7.16421 16.049 6.75C16.7665 6.33579 17.7958 6.77547 18.3481 7.73205Z" fill="white"/>
<path d="M2 13C2 19.0751 6.92487 24 13 24C15.2952 24 17.4262 23.2971 19.1895 22.0947C18.9147 23.3086 19.2498 24.6327 20.195 25.5779L23.3769 28.7599C24.8414 30.2243 27.2158 30.2243 28.6803 28.7599C30.1447 27.2954 30.1447 24.921 28.6803 23.4566L25.4983 20.2746C24.5607 19.3371 23.2503 18.9997 22.0445 19.2626C23.2774 17.4852 24 15.327 24 13C24 6.92487 19.0751 2 13 2C6.92487 2 2 6.92487 2 13ZM22 13C22 17.9706 17.9706 22 13 22C8.02944 22 4 17.9706 4 13C4 8.02944 8.02944 4 13 4C17.9706 4 22 8.02944 22 13Z" fill="#533566"/>
</svg>

<svg xmlns="http://www.w3.org/2000/svg" width="32" height="32" fill="none"><path fill="#00A6ED" d="M3 13c0 5.523 4.477 10 10 10s10-4.477 10-10S18.523 3 13 3 3 7.477 3 13Z"/><path fill="#fff" d="M18.348 7.732c.552.957.419 2.068-.299 2.482-.717.414-1.747-.025-2.299-.982-.552-.957-.418-2.068.299-2.482.718-.414 1.747.025 2.3.982Z"/><path fill="#533566" d="M2 13c0 6.075 4.925 11 11 11 2.295 0 4.426-.703 6.19-1.905a3.747 3.747 0 0 0 1.005 3.483l3.182 3.182a3.75 3.75 0 0 0 5.303-5.303l-3.182-3.182a3.747 3.747 0 0 0-3.454-1.012A10.95 10.95 0 0 0 24 13c0-6.075-4.925-11-11-11S2 6.925 2 13Zm20 0a9 9 0 1 1-18 0 9 9 0 0 1 18 0Z"/></svg>
